static/fa/svgs/regular/hand-point-left.svg

<svg xmlns="http://www.w3.org/2000/svg" viewBox="0 0 512 512"><!--! Font Awesome Free 6.1.1 by @fontawesome - https://fontawesome.com License - https://fontawesome.com/license/free (Icons: CC BY 4.0, Fonts: SIL OFL 1.1, Code: MIT License) Copyright 2022 Fonticons, Inc.--><path d="M264 480h104c79.4 0 144-62.95 144-140.3V231.8c0-23.44-6.104-46.73-17.65-67.35L462.1 108.6c-14.6-27.5-45-44.6-76.2-44.6H336c-27.23 0-51.53 12.51-67.69 32H72c-39.7 0-72 32.3-72 72s32.3 72 72 72h56.44c-.34 2.6-.44 5.3-.44 8 0 25.95 13.79 48.73 34.43 61.4-1.63 5.9-2.43 12.2-2.43 18.6 0 25.95 13.79 48.73 34.43 61.4-1.63 5.9-2.43 12.2-2.43 18.6 0 39.7 32.3 72 72 72zm16-176c13.23 0 24 10.78 24 24s-10.9 24-24.1 24H232c-13.23 0-24-10.78-24-24s10.8-24 24-24h48zm-32-80v12c0 12.39 3.264 23.93 8.545 34.27C253.9 271.3 251 272 248 272h-48c-13.2 0-24-10.8-24-24s10.8-24 24-24h48zm0-80c.281 0 .514.15.793.16-.193 2.64-.793 5.14-.793 7.84v40H72c-13.23 0-24-10.8-24-24s10.77-24 24-24h176zm140.2 285.9c2.2-7 3.8-14.2 3.8-21.9 0-29.04-17.37-53.96-42.18-65.34C350.8 337.8 352 333 352 328c0-7.139-1.273-13.96-3.355-20.46C378.4 297.2 400 269.2 400 236v-52c0-13.2-10.7-24-24-24s-24 10.8-24 24v52c0 15.44-12.56 28-28 28s-28-12.6-28-28v-84c0-22.06 17.94-40 40-40h49.88c14.77 0 28.28 7.719 35.27 20.16l31.34 55.78C460 201.4 464 216.6 464 231.8v107.9c0 44.2-32.6 81.2-75.8 90.2zM264 432c-13.23 0-24-10.78-24-24s10.8-24 24-24h56c13.23 0 24 10.78 24 24s-10.8 24-24 24h-56z"/></svg>

<svg xmlns="http://www.w3.org/2000/svg" viewBox="0 0 512 512"><!--! Font Awesome Free 6.1.1 by @fontawesome - https://fontawesome.com License - https://fontawesome.com/license/free (Icons: CC BY 4.0, Fonts: SIL OFL 1.1, Code: MIT License) Copyright 2022 Fonticons, Inc. --><path d="M264 480h104c79.4 0 144-62.95 144-140.3V231.8c0-23.44-6.104-46.73-17.65-67.35L462.1 108.6C447.5 81.1 417.1 64 385.9 64H336c-27.23 0-51.53 12.51-67.69 32H72C32.3 96 0 128.3 0 168S32.3 240 72 240h56.44C128.1 242.6 128 245.3 128 248c0 25.95 13.79 48.73 34.43 61.4C160.8 315.3 160 321.6 160 328c0 25.95 13.79 48.73 34.43 61.4C192.8 395.3 192 401.6 192 408C192 447.7 224.3 480 264 480zM280 304c13.23 0 24 10.78 24 24S293.1 352 279.9 352H232c-13.23 0-24-10.78-24-24S218.8 304 232 304H280zM248 224v12c0 12.39 3.264 23.93 8.545 34.27C253.9 271.3 251 272 248 272h-48C186.8 272 176 261.2 176 248S186.8 224 200 224H248zM248 144c.2813 0 .5137 .1504 .793 .1602C248.6 146.8 248 149.3 248 152V192h-176C58.77 192 48 181.2 48 168S58.77 144 72 144H248zM388.2 429.9C390.4 422.9 392 415.7 392 408c0-29.04-17.37-53.96-42.18-65.34C350.8 337.8 352 333 352 328c0-7.139-1.273-13.96-3.355-20.46C378.4 297.2 400 269.2 400 236V184C400 170.8 389.3 160 376 160S352 170.8 352 184v52c0 15.44-12.56 28-28 28S296 251.4 296 236V152c0-22.06 17.94-40 40-40h49.88c14.77 0 28.28 7.719 35.27 20.16l31.34 55.78C460 201.4 464 216.6 464 231.8v107.9C464 383.9 431.4 420.9 388.2 429.9zM264 432c-13.23 0-24-10.78-24-24S250.8 384 264 384H320c13.23 0 24 10.78 24 24S333.2 432 320 432H264z"/></svg>
